X:22
T:Damhsadh Bhradain Roaig
T:Dance of the Roag Salmon
C:Phil Cunningham
M:2/4
L:1/8
K:D
f|:A/2>A/2A/2>d/2 f>e| f/2>e/2f/2<a/2 de/2>f/2| gG/2<g/2 ef/2>d/2|
B2 Bd/2>B/2|A/2>A/2A/2>d/2 f>e|f/2>e/2f/2<a/2 d/2>e/2c/2<A/2|
G/2>B/2B/2<e/2 e/2>f/2B/2<f/2|e2 ef|A/2>A/2A/2>d/2 f>e|
d/2>e/2f/2<a/2 d2e/2>f/2|gG/2<g/2 ef/2>d/2|B2 B>f|e/2>e/2e/2>f/2 B/2>B/2B/2>f/2|
e/2>d/2B/2<f/2 e>f|A/2>A/2A/2>B/2 G/2>f/2e/2<f/2|1 d2 df :|2 d2 z f/2>g/2||
|a/2>A/2a/2>A/2 f/2>A/2f/2>A/2| A/2>d/2e/2<a/2 fe/2>f/2|gG/2<g/2 ef/2>d/2|
B2 Bf/2>g/2|a/2>A/2a/2>A/2A/2 f/2>A/2f/2>A/2| A/2>d/2e/2<a/2 f/2>e/2d/2<B/2|
G/2>B/2B/2<e/2 e/2>f/2B/2<f/2|e2 ef/2>g/2|a/2>a/2a/2>g/2 f/2>f/2f/2>e/2|
d/2>e/2f/2<a/2 de/2>f/2|gG/2<g/2 ef/2>d/2|B2 B>f|e/2>e/2e/2>f/2 B/2>B/2Bf|
e/2>d/2B/2<f/2 e/2>f/2|A/2>A/2A/2>B/2 G/2>f/2e/2<f/2|1d2 df/2>g/2 :|2 d2 d ||
